packages/kaspersky-hexa-ui-icons/src/iconsSVGs/16/IOCScan.svg

<svg width="16" height="16" viewBox="0 0 16 16" fill="none" xmlns="http://www.w3.org/2000/svg">
<path d="M2.66602 10.3477C3.02492 10.3477 3.31627 10.6382 3.31641 10.9971V11.9971C3.31641 12.3743 3.62181 12.6797 3.99902 12.6797H4.99902L5.12988 12.6934C5.42602 12.754 5.64844 13.016 5.64844 13.3301C5.64844 13.6441 5.42602 13.9061 5.12988 13.9668L4.99902 13.9805H3.99902C2.90384 13.9805 2.01563 13.0923 2.01562 11.9971V10.9971C2.01576 10.6382 2.30711 10.3477 2.66602 10.3477Z" fill="black"/>
<path d="M13.3301 10.3477C13.689 10.3477 13.9803 10.6382 13.9805 10.9971V11.9971C13.9805 13.0923 13.0923 13.9805 11.9971 13.9805H10.9971C10.6382 13.9803 10.3477 13.689 10.3477 13.3301C10.3477 12.9712 10.6382 12.6798 10.9971 12.6797H11.9971C12.3743 12.6797 12.6797 12.3743 12.6797 11.9971V10.9971C12.6798 10.6382 12.9712 10.3477 13.3301 10.3477Z" fill="black"/>
<path fill-rule="evenodd" clip-rule="evenodd" d="M7.05273 6.41699C7.48516 6.41711 7.85907 6.58052 8.12402 6.86426C8.38813 7.14743 8.538 7.54336 8.53809 7.99805C8.53801 8.45295 8.38837 8.84961 8.12402 9.13281C7.85907 9.41648 7.4851 9.57898 7.05273 9.5791C6.6221 9.5791 6.24882 9.4164 5.98438 9.13281C5.7206 8.84964 5.57137 8.45296 5.57129 7.99805C5.57137 7.54314 5.7206 7.14743 5.98438 6.86426C6.24885 6.58036 6.62184 6.417 7.05273 6.41699ZM7.05273 7.34766C6.90451 7.34766 6.79082 7.40629 6.71094 7.50879C6.62843 7.61477 6.57428 7.77864 6.57422 7.99805C6.57428 8.21755 6.62837 8.38231 6.71094 8.48828C6.79081 8.5905 6.90473 8.64941 7.05273 8.64941C7.20319 8.64929 7.31835 8.59055 7.39844 8.48828C7.48134 8.38241 7.5351 8.21761 7.53516 7.99805C7.53509 7.7789 7.48108 7.61468 7.39844 7.50879C7.31835 7.40652 7.20319 7.34778 7.05273 7.34766Z" fill="black"/>
<path fill-rule="evenodd" clip-rule="evenodd" d="M10.4404 6.41699C10.7488 6.41699 11.0654 6.50051 11.3184 6.68457C11.574 6.8708 11.7583 7.15634 11.8047 7.54297C11.809 7.58062 11.7976 7.6191 11.7725 7.64746C11.7473 7.67553 11.7106 7.69128 11.6729 7.69141H10.9521C10.8918 7.69099 10.8384 7.65027 10.8232 7.5918C10.7786 7.41851 10.6002 7.34766 10.4326 7.34766C10.2834 7.34781 10.1681 7.40566 10.0879 7.50684C10.0054 7.61154 9.95026 7.77522 9.9502 7.99805C9.95025 8.2213 10.0051 8.38556 10.0879 8.49023C10.1681 8.59141 10.2834 8.64926 10.4326 8.64941C10.6038 8.64941 10.7906 8.57621 10.8389 8.36133L10.8555 8.31934C10.8792 8.28148 10.922 8.257 10.9688 8.25684H11.6885C11.7263 8.25685 11.7628 8.27361 11.7881 8.30176C11.813 8.32977 11.8252 8.36702 11.8213 8.4043C11.7773 8.8083 11.5899 9.10647 11.3301 9.30078C11.0731 9.49271 10.7513 9.5791 10.4404 9.5791C10.0048 9.57891 9.62851 9.4181 9.3623 9.13477C9.09663 8.85187 8.94735 8.45483 8.94727 7.99805C8.94735 7.54148 9.09686 7.14517 9.3623 6.8623C9.62852 6.5789 10.0047 6.41718 10.4404 6.41699Z" fill="black"/>
<path d="M5.02734 6.46484C5.10077 6.46508 5.16113 6.52516 5.16113 6.59863V9.39844C5.16077 9.47161 5.10054 9.53102 5.02734 9.53125H4.30762C4.23422 9.53125 4.17419 9.47175 4.17383 9.39844V6.59863C4.17383 6.52501 4.234 6.46484 4.30762 6.46484H5.02734Z" fill="black"/>
<path d="M5.12988 2.0293C5.42602 2.08995 5.64844 2.35194 5.64844 2.66602C5.64844 2.98009 5.42602 3.24208 5.12988 3.30273L4.99902 3.31641H3.99902C3.62181 3.31641 3.31641 3.62181 3.31641 3.99902V4.99902C3.31627 5.3579 3.02492 5.64844 2.66602 5.64844C2.30711 5.64844 2.01576 5.3579 2.01562 4.99902V3.99902C2.01562 2.90384 2.90384 2.01563 3.99902 2.01562H4.99902L5.12988 2.0293Z" fill="black"/>
<path d="M11.9971 2.01562C13.0923 2.01562 13.9805 2.90384 13.9805 3.99902V4.99902C13.9803 5.3579 13.689 5.64844 13.3301 5.64844C12.9712 5.64844 12.6798 5.3579 12.6797 4.99902V3.99902C12.6797 3.62181 12.3743 3.31641 11.9971 3.31641H10.9971C10.6382 3.31627 10.3477 3.02492 10.3477 2.66602C10.3477 2.30711 10.6382 2.01576 10.9971 2.01562H11.9971Z" fill="black"/>
</svg>

<svg xmlns="http://www.w3.org/2000/svg" width="16" height="16" fill="none" viewBox="0 0 16 16"><path fill="#000" d="M2.666 10.348a.65.65 0 0 1 .65.649v1c0 .377.305.683.683.683h1l.131.014a.65.65 0 0 1 .519.637.65.65 0 0 1-.518.637L5 13.982H4c-1.095 0-1.983-.888-1.983-1.983v-1a.65.65 0 0 1 .65-.649m10.663-.002a.65.65 0 0 1 .65.649v1c0 1.095-.888 1.983-1.983 1.983h-1a.65.65 0 0 1-.649-.65.65.65 0 0 1 .649-.65h1a.682.682 0 0 0 .683-.683v-1a.65.65 0 0 1 .65-.649"/><path fill="#000" fill-rule="evenodd" d="M7.053 6.417c.433 0 .806.164 1.071.447.264.283.414.679.414 1.134s-.15.852-.414 1.135c-.265.284-.639.446-1.071.446-.431 0-.804-.163-1.068-.446s-.413-.68-.413-1.135.149-.851.413-1.134c.265-.284.638-.447 1.068-.447m0 .931c-.148 0-.262.059-.342.161-.082.106-.137.27-.137.489 0 .22.054.384.137.49.08.102.194.161.342.161.151 0 .266-.059.346-.161.083-.106.137-.271.137-.49s-.054-.383-.137-.489c-.08-.102-.195-.161-.346-.161m3.387-.931c.308 0 .625.084.878.268.256.186.44.472.486.858a.135.135 0 0 1-.032.105.135.135 0 0 1-.1.044h-.721a.134.134 0 0 1-.129-.1c-.045-.173-.223-.244-.391-.244-.149 0-.264.058-.345.159-.082.105-.138.268-.138.491s.055.388.138.492c.08.101.196.159.345.159.171 0 .358-.073.406-.288l.017-.042a.135.135 0 0 1 .113-.063h.72a.134.134 0 0 1 .133.148c-.044.404-.231.702-.491.897-.257.192-.579.278-.89.278-.436 0-.812-.161-1.078-.444s-.415-.68-.415-1.137c0-.456.15-.853.415-1.136.266-.283.642-.445 1.078-.445" clip-rule="evenodd"/><path fill="#000" d="M5.027 6.465a.135.135 0 0 1 .134.134v2.8a.134.134 0 0 1-.134.133h-.72a.134.134 0 0 1-.134-.133v-2.8a.134.134 0 0 1 .134-.134zm.103-4.436a.65.65 0 0 1 .519.637c0 .314-.222.576-.518.637L5 3.317H4A.682.682 0 0 0 3.317 4v1a.65.65 0 0 1-.65.649.65.65 0 0 1-.65-.649V4c0-1.095.888-1.983 1.983-1.983h1zm6.867-.013c1.095 0 1.983.888 1.983 1.983v1a.65.65 0 0 1-.65.649.65.65 0 0 1-.65-.649v-1a.682.682 0 0 0-.683-.683h-1a.65.65 0 0 1-.649-.65.65.65 0 0 1 .649-.65z"/></svg>
